remix/Device/database-2-line.svg

<svg viewBox="0 0 24 24" fill="currentColor" xmlns="http://www.w3.org/2000/svg"><path d="M5 12.5C5 12.8134 5.46101 13.3584 6.53047 13.8931C7.91405 14.5849 9.87677 15 12 15C14.1232 15 16.0859 14.5849 17.4695 13.8931C18.539 13.3584 19 12.8134 19 12.5V10.3287C17.35 11.3482 14.8273 12 12 12C9.17273 12 6.64996 11.3482 5 10.3287V12.5ZM19 15.3287C17.35 16.3482 14.8273 17 12 17C9.17273 17 6.64996 16.3482 5 15.3287V17.5C5 17.8134 5.46101 18.3584 6.53047 18.8931C7.91405 19.5849 9.87677 20 12 20C14.1232 20 16.0859 19.5849 17.4695 18.8931C18.539 18.3584 19 17.8134 19 17.5V15.3287ZM3 17.5V7.5C3 5.01472 7.02944 3 12 3C16.9706 3 21 5.01472 21 7.5V17.5C21 19.9853 16.9706 22 12 22C7.02944 22 3 19.9853 3 17.5ZM12 10C14.1232 10 16.0859 9.58492 17.4695 8.89313C18.539 8.3584 19 7.81342 19 7.5C19 7.18658 18.539 6.6416 17.4695 6.10687C16.0859 5.41508 14.1232 5 12 5C9.87677 5 7.91405 5.41508 6.53047 6.10687C5.46101 6.6416 5 7.18658 5 7.5C5 7.81342 5.46101 8.3584 6.53047 8.89313C7.91405 9.58492 9.87677 10 12 10Z"/></svg>

<svg viewBox="0 0 24 24" xmlns="http://www.w3.org/2000/svg"><path fill="none" d="M0 0h24v24H0Z"/><path d="M5 12.5c0 .31.46.85 1.53 1.39 1.38.69 3.34 1.1 5.47 1.1 2.12 0 4.08-.42 5.47-1.11 1.06-.54 1.53-1.08 1.53-1.4V10.3c-1.65 1.02-4.173 1.67-7 1.67s-5.35-.66-7-1.68v2.17Zm14 2.82c-1.65 1.02-4.173 1.67-7 1.67s-5.35-.66-7-1.68v2.17c0 .31.46.85 1.53 1.39 1.38.69 3.34 1.1 5.47 1.1 2.12 0 4.08-.42 5.47-1.11 1.06-.54 1.53-1.08 1.53-1.4v-2.18ZM3 17.49v-10c0-2.49 4.03-4.5 9-4.5s9 2.01 9 4.5v10c0 2.48-4.03 4.5-9 4.5s-9-2.02-9-4.5Zm9-7.5c2.12 0 4.08-.42 5.47-1.11C18.53 8.34 19 7.8 19 7.48c0-.32-.47-.86-1.53-1.4 -1.39-.7-3.35-1.11-5.47-1.11 -2.13 0-4.086.41-5.47 1.1C5.46 6.6 5 7.15 5 7.46c0 .31.46.85 1.53 1.39 1.38.69 3.34 1.1 5.47 1.1Z"/></svg>
